remix/Device/battery-charge-fill.svg

<svg viewBox="0 0 24 24" fill="currentColor" xmlns="http://www.w3.org/2000/svg"><path d="M12 11V5L7 13H10V19L15 11H12ZM3 5H19C19.5523 5 20 5.44772 20 6V18C20 18.5523 19.5523 19 19 19H3C2.44772 19 2 18.5523 2 18V6C2 5.44772 2.44772 5 3 5ZM21 9H23V15H21V9Z"/></svg>

<svg viewBox="0 0 24 24" xmlns="http://www.w3.org/2000/svg"><path fill="none" d="M0 0h24v24H0Z"/><path d="M12 11V5l-5 8h3v6l5-8h-3ZM3 5h16v0c.55 0 1 .44 1 1v12 0c0 .55-.45 1-1 1H3v0c-.56 0-1-.45-1-1V6v0c0-.56.44-1 1-1Zm18 4h2v6h-2V9Z"/></svg>
